; generated by Slic3r 1.3.0 on 2020-03-29 at 02:17:16

; external perimeters extrusion width = 0.44mm (3.38mm^3/s)
; perimeters extrusion width = 0.48mm (7.54mm^3/s)
; infill extrusion width = 0.48mm (10.05mm^3/s)
; solid infill extrusion width = 0.48mm (2.51mm^3/s)
; top infill extrusion width = 0.48mm (1.88mm^3/s)

M107
M190 S55 ; set bed temperature and wait for it to be reached
M104 S205 ; set temperature
G28 ; home all axes
G1 Z5 F5000 ; lift nozzle

; Filament gcode

M109 S205 ; set temperature and wait for it to be reached
G21 ; set units to millimeters
G90 ; use absolute coordinates
M82 ; use absolute distances for extrusion
G92 E0
G1 Z0.400 F7800.000
G1 E-2.00000 F2400.00000
G92 E0
G1 X110.464 Y108.315 F7800.000
G1 E2.00000 F2400.00000
G1 F1800
G1 X110.888 Y107.921 E2.06876
G1 X111.514 Y107.405 E2.16504
G1 X111.966 Y107.076 E2.23148
G1 X112.700 Y106.612 E2.33459
G1 X113.175 Y106.353 E2.39881
G1 X114.017 Y105.967 E2.50889
G1 X114.507 Y105.782 E2.57114
G1 X115.449 Y105.503 E2.68772
G1 X115.948 Y105.394 E2.74838
G1 X116.963 Y105.253 E2.87019
G1 X117.464 Y105.222 E2.92978
G1 X118.517 Y105.239 E3.05481
G1 X119.012 Y105.287 E3.11392
G1 X120.055 Y105.470 E3.23964
G1 X120.538 Y105.595 E3.29891
G1 X121.523 Y105.933 E3.42262
G1 X121.987 Y106.134 E3.48268
G1 X122.878 Y106.601 E3.60208
G1 X123.316 Y106.875 E3.66348
G1 X124.088 Y107.437 E3.77691
G1 X124.495 Y107.780 E3.84011
G1 X125.141 Y108.403 E3.94672
G1 X125.511 Y108.810 E4.01203
G1 X126.034 Y109.466 E4.11167
G1 X126.361 Y109.932 E4.17927
G1 X126.772 Y110.599 E4.27231
G1 X127.052 Y111.117 E4.34224
G1 X127.364 Y111.781 E4.42938
G1 X127.593 Y112.344 E4.50154
G1 X127.819 Y112.997 E4.58365
G1 X127.993 Y113.597 E4.65784
G1 X128.145 Y114.236 E4.73587
G1 X128.263 Y114.864 E4.81180
G1 X128.349 Y115.489 E4.88668
G1 X128.408 Y116.137 E4.96398
G1 X128.435 Y116.748 E5.03665
G1 X128.435 Y117.407 E5.11489
G1 X128.408 Y118.007 E5.18624
G1 X128.348 Y118.668 E5.26496
G1 X128.268 Y119.259 E5.33587
G1 X128.150 Y119.911 E5.41459
G1 X128.016 Y120.497 E5.48594
G1 X127.841 Y121.132 E5.56419
G1 X127.652 Y121.714 E5.63685
G1 X127.423 Y122.323 E5.71415
G1 X127.174 Y122.903 E5.78903
G1 X126.894 Y123.477 E5.86496
G1 X126.577 Y124.053 E5.94299
G1 X126.250 Y124.585 E6.01718
G1 X125.857 Y125.154 E6.09929
G1 X125.488 Y125.636 E6.17145
G1 X125.010 Y126.193 E6.25859
G1 X124.602 Y126.618 E6.32852
G1 X124.028 Y127.151 E6.42156
G1 X123.589 Y127.514 E6.48915
G1 X122.910 Y128.006 E6.58880
G1 X122.446 Y128.301 E6.65411
G1 X121.657 Y128.730 E6.76072
G1 X121.174 Y128.952 E6.82391
G1 X120.280 Y129.288 E6.93735
G1 X119.784 Y129.436 E6.99875
G1 X118.802 Y129.649 E7.11815
G1 X118.301 Y129.719 E7.17821
G1 X117.261 Y129.783 E7.30193
G1 X116.762 Y129.775 E7.36119
G1 X115.709 Y129.674 E7.48691
G1 X115.219 Y129.588 E7.54602
G1 X114.199 Y129.325 E7.67105
G1 X113.725 Y129.162 E7.73064
G1 X112.783 Y128.755 E7.85245
G1 X112.331 Y128.517 E7.91311
G1 X111.498 Y127.998 E8.02969
G1 X111.074 Y127.690 E8.09194
G1 X110.365 Y127.093 E8.20202
G1 X109.976 Y126.717 E8.26624
G1 X109.393 Y126.074 E8.36936
G1 X109.044 Y125.637 E8.43579
G1 X108.578 Y124.974 E8.53206
G1 X108.274 Y124.481 E8.60083
G1 X107.914 Y123.814 E8.69082
G1 X107.659 Y123.273 E8.76188
G1 X107.391 Y122.613 E8.84640
G1 X107.190 Y122.031 E8.91960
G1 X107.002 Y121.384 E8.99955
G1 X106.856 Y120.769 E9.07465
G1 X106.738 Y120.137 E9.15099
G1 X106.650 Y119.498 E9.22765
G1 X106.593 Y118.880 E9.30132
G1 X106.564 Y118.226 E9.37914
G1 X106.564 Y117.620 E9.45104
G1 X106.595 Y116.960 E9.52958
G1 X106.648 Y116.364 E9.60060
G1 X106.737 Y115.707 E9.67938
G1 X106.844 Y115.118 E9.75040
G1 X106.991 Y114.473 E9.82895
G1 X107.151 Y113.890 E9.90084
G1 X107.354 Y113.267 E9.97867
G1 X107.572 Y112.686 E10.05233
G1 X107.828 Y112.093 E10.12899
G1 X108.110 Y111.516 E10.20533
G1 X108.414 Y110.961 E10.28043
G1 X108.767 Y110.388 E10.36038
G1 X109.116 Y109.880 E10.43359
G1 X109.550 Y109.316 E10.51810
G1 X109.939 Y108.862 E10.58916
G1 X110.423 Y108.358 E10.67203
G1 E8.67203 F2400.00000
G92 E0
G1 X118.508 Y120.631 F7800.000
G1 E2.00000 F2400.00000
G1 F1800
G1 X118.240 Y120.853 E2.04131
G1 X117.975 Y121.020 E2.07848
G1 X117.722 Y121.137 E2.11164
G1 X117.483 Y121.208 E2.14125
G1 X117.259 Y121.239 E2.16811
G1 X117.046 Y121.236 E2.19331
G1 X116.840 Y121.200 E2.21817
G1 X116.634 Y121.129 E2.24404
G1 X116.425 Y121.019 E2.27216
G1 X116.212 Y120.863 E2.30346
G1 X115.999 Y120.658 E2.33859
G1 X115.793 Y120.399 E2.37783
G1 X115.602 Y120.088 E2.42119
G1 X115.433 Y119.728 E2.46845
G1 X115.293 Y119.324 E2.51924
G1 X115.188 Y118.883 E2.57304
G1 X115.124 Y118.415 E2.62926
G1 X115.102 Y117.927 E2.68724
G1 X115.124 Y117.430 E2.74630
G1 X115.192 Y116.934 E2.80573
G1 X115.302 Y116.449 E2.86479
G1 X115.453 Y115.985 E2.92278
G1 X115.640 Y115.550 E2.97900
G1 X115.858 Y115.153 E3.03279
G1 X116.100 Y114.801 E3.08358
G1 X116.359 Y114.498 E3.13084
G1 X116.626 Y114.250 E3.17420
G1 X116.894 Y114.055 E3.21344
G1 X117.153 Y113.914 E3.24857
G1 X117.400 Y113.821 E3.27988
G1 X117.631 Y113.770 E3.30799
G1 X117.842 Y113.757 E3.33309
G1 X118.019 Y113.775 E3.35423
G1 X118.279 Y113.837 E3.38598
G1 X118.470 Y113.920 E3.41065
G1 X118.681 Y114.052 E3.44026
G1 X118.895 Y114.232 E3.47343
G1 X119.105 Y114.463 E3.51059
G1 X119.305 Y114.748 E3.55190
G1 X119.486 Y115.084 E3.59725
G1 X119.641 Y115.467 E3.64634
G1 X119.764 Y115.891 E3.69870
G1 X119.849 Y116.347 E3.75378
G1 X119.893 Y116.826 E3.81097
G1 X119.892 Y117.320 E3.86958
G1 X119.847 Y117.817 E3.92892
G1 X119.758 Y118.309 E3.98825
G1 X119.627 Y118.785 E4.04686
G1 X119.458 Y119.235 E4.10405
G1 X119.255 Y119.652 E4.15914
G1 X119.024 Y120.028 E4.21150
G1 X118.772 Y120.356 E4.26058
G1 X118.549 Y120.588 E4.29880
G1 X118.962 Y121.182 F7800.000
G1 F1800
G1 X118.660 Y121.432 E4.34543
G1 X118.317 Y121.649 E4.39358
G1 X117.974 Y121.807 E4.43848
G1 X117.635 Y121.908 E4.48050
G1 X117.303 Y121.954 E4.52033
G1 X116.978 Y121.949 E4.55884
G1 X116.661 Y121.893 E4.59707
G1 X116.350 Y121.786 E4.63611
G1 X116.046 Y121.626 E4.67694
G1 X115.751 Y121.411 E4.72034
G1 X115.470 Y121.139 E4.76683
G1 X115.208 Y120.811 E4.81669
G1 X114.973 Y120.429 E4.86997
G1 X114.770 Y119.998 E4.92653
G1 X114.606 Y119.524 E4.98607
G1 X114.485 Y119.015 E5.04819
G1 X114.412 Y118.479 E5.11240
G1 X114.387 Y117.926 E5.17813
G1 X114.412 Y117.366 E5.24481
G1 X114.488 Y116.807 E5.31179
G1 X114.613 Y116.259 E5.37846
G1 X114.784 Y115.733 E5.44420
G1 X114.997 Y115.236 E5.50840
G1 X115.249 Y114.778 E5.57052
G1 X115.533 Y114.365 E5.63007
G1 X115.843 Y114.003 E5.68662
G1 X116.171 Y113.697 E5.73991
G1 X116.511 Y113.451 E5.78977
G1 X116.855 Y113.263 E5.83626
G1 X117.197 Y113.134 E5.87965
G1 X117.532 Y113.061 E5.92048
G1 X117.857 Y113.041 E5.95905
G1 X118.139 Y113.070 E5.99272
G1 X118.505 Y113.157 E6.03748
G1 X118.803 Y113.285 E6.07597
G1 X119.103 Y113.473 E6.11800
G1 X119.392 Y113.716 E6.16289
G1 X119.664 Y114.017 E6.21105
G1 X119.913 Y114.372 E6.26263
G1 X120.133 Y114.780 E6.31757
G1 X120.317 Y115.233 E6.37567
G1 X120.460 Y115.725 E6.43656
G1 X120.557 Y116.249 E6.49979
G1 X120.607 Y116.794 E6.56483
G1 X120.607 Y117.352 E6.63111
G1 X120.556 Y117.913 E6.69802
G1 X120.456 Y118.468 E6.76492
G1 X120.307 Y119.006 E6.83120
G1 X120.115 Y119.518 E6.89624
G1 X119.881 Y119.997 E6.95947
G1 X119.613 Y120.433 E7.02036
G1 X119.315 Y120.821 E7.07846
G1 X119.007 Y121.142 E7.13124
G1 X119.417 Y121.733 F7800.000
G1 F1800
G1 X119.080 Y122.011 E7.18317
G1 X118.659 Y122.278 E7.24232
G1 X118.226 Y122.477 E7.29894
G1 X117.787 Y122.608 E7.35339
G1 X117.346 Y122.669 E7.40618
G1 X116.910 Y122.662 E7.45799
G1 X116.482 Y122.587 E7.50961
G1 X116.066 Y122.444 E7.56182
G1 X115.667 Y122.234 E7.61536
G1 X115.290 Y121.959 E7.67084
G1 X114.940 Y121.620 E7.72869
G1 X114.622 Y121.222 E7.78918
G1 X114.343 Y120.769 E7.85238
G1 X114.108 Y120.267 E7.91824
G1 X113.920 Y119.724 E7.98654
G1 X113.783 Y119.146 E8.05698
G1 X113.700 Y118.544 E8.12917
G1 X113.672 Y117.926 E8.20266
G1 X113.701 Y117.301 E8.27694
G1 X113.785 Y116.679 E8.35148
G1 X113.924 Y116.069 E8.42576
G1 X114.115 Y115.481 E8.49925
G1 X114.355 Y114.923 E8.57144
G1 X114.640 Y114.403 E8.64188
G1 X114.966 Y113.929 E8.71018
G1 X115.327 Y113.508 E8.77604
G1 X115.717 Y113.145 E8.83924
G1 X116.129 Y112.846 E8.89973
G1 X116.556 Y112.613 E8.95758
G1 X116.993 Y112.448 E9.01306
G1 X117.434 Y112.351 E9.06660
G1 X117.871 Y112.324 E9.11865
G1 X118.258 Y112.364 E9.16484
G1 X118.731 Y112.476 E9.22260
G1 X119.135 Y112.651 E9.27491
G1 X119.524 Y112.894 E9.32936
G1 X119.889 Y113.201 E9.38598
G1 X120.223 Y113.570 E9.44513
G1 X120.522 Y113.997 E9.50698
G1 X120.780 Y114.475 E9.57152
G1 X120.993 Y114.999 E9.63863
G1 X121.155 Y115.560 E9.70805
G1 X121.266 Y116.151 E9.77942
G1 X121.321 Y116.762 E9.85232
G1 X121.321 Y117.385 E9.92627
G1 X121.264 Y118.009 E10.00075
G1 X121.153 Y118.626 E10.07522
G1 X120.987 Y119.227 E10.14917
G1 X120.771 Y119.801 E10.22207
G1 X120.508 Y120.341 E10.29344
G1 X120.201 Y120.839 E10.36286
G1 X119.857 Y121.287 E10.42997
G1 X119.463 Y121.695 E10.49728
G1 X119.038 Y121.606 F7800.000
G1 E8.49728 F2400.00000
G92 E0
G1 X117.742 Y120.386 F7800.000
G1 E2.00000 F2400.00000
G1 F1800
G1 X118.507 Y119.612 E2.13342
G1 X118.712 Y119.344 E2.17480
G1 X118.906 Y119.030 E2.22007
G1 X119.079 Y118.675 E2.26856
G1 X119.225 Y118.286 E2.31952
G1 X119.367 Y117.718 E2.39138
G1 X116.451 Y120.634 E2.89732
G1 X116.251 Y120.454 E2.93029
G1 X116.101 Y120.266 E2.95985
G1 X115.977 Y120.065 E2.98883
G1 X119.456 Y116.585 E3.59242
G1 X119.419 Y116.167 E3.64395
G1 X119.318 Y115.681 E3.70488
G1 X115.681 Y119.317 E4.33575
G1 X115.613 Y119.030 E4.37198
G1 X115.558 Y118.627 E4.42180
G1 X115.548 Y118.407 E4.44882
G1 X119.021 Y114.934 E5.05135
G1 X118.824 Y114.632 E5.09560
G1 X118.676 Y114.469 E5.12264
G1 X118.550 Y114.363 E5.14288
G1 X115.630 Y117.282 E5.64930
G1 X115.713 Y116.917 E5.69521
G1 X115.844 Y116.515 E5.74710
G1 X116.005 Y116.141 E5.79692
G1 X116.189 Y115.806 E5.84389
G1 X116.389 Y115.514 E5.88730
G1 X116.596 Y115.273 E5.92635
G1 X117.155 Y114.714 E6.02324
M104 S200 ; set temperature
M140 S50 ; set bed temperature
G1 Z0.700 F7800.000
G1 X118.815 Y120.989 F7800.000
G1 F900
G1 X118.534 Y121.216 E6.04208
G1 X118.138 Y121.470 E6.06671
G1 X117.739 Y121.665 E6.08988
G1 X117.346 Y121.800 E6.11159
G1 X116.965 Y121.875 E6.13190
G1 X116.600 Y121.895 E6.15097
G1 X116.255 Y121.861 E6.16911
G1 X115.929 Y121.777 E6.18668
G1 X115.623 Y121.644 E6.20414
G1 X115.335 Y121.461 E6.22194
G1 X115.068 Y121.227 E6.24051
G1 X114.824 Y120.940 E6.26017
G1 X114.608 Y120.601 E6.28117
G1 X114.426 Y120.212 E6.30360
G1 X114.284 Y119.777 E6.32751
G1 X114.186 Y119.303 E6.35283
G1 X114.136 Y118.796 E6.37944
G1 X114.138 Y118.265 E6.40716
G1 X114.192 Y117.720 E6.43578
G1 X114.298 Y117.170 E6.46506
G1 X114.456 Y116.624 E6.49475
G1 X114.662 Y116.092 E6.52457
G1 X114.914 Y115.582 E6.55426
G1 X115.207 Y115.104 E6.58354
G1 X115.535 Y114.666 E6.61216
G1 X115.892 Y114.273 E6.63988
G1 X116.270 Y113.932 E6.66649
G1 X116.663 Y113.648 E6.69181
G1 X117.062 Y113.423 E6.71572
G1 X117.458 Y113.259 E6.73816
G1 X117.846 Y113.154 E6.75915
G1 X118.191 Y113.110 E6.77732
G1 X118.583 Y113.116 E6.79779
G1 X118.911 Y113.173 E6.81516
G1 X119.227 Y113.282 E6.83262
G1 X119.524 Y113.440 E6.85019
G1 X119.801 Y113.648 E6.86833
G1 X120.057 Y113.908 E6.88741
G1 X120.288 Y114.221 E6.90772
G1 X120.487 Y114.586 E6.92942
G1 X120.650 Y114.998 E6.95260
G1 X120.771 Y115.454 E6.97723
G1 X120.845 Y115.946 E7.00321
G1 X120.869 Y116.466 E7.03040
G1 X120.842 Y117.005 E7.05860
G1 X120.762 Y117.554 E7.08758
G1 X120.629 Y118.103 E7.11710
G1 X120.447 Y118.643 E7.14689
G1 X120.217 Y119.165 E7.17667
G1 X119.944 Y119.660 E7.20619
G1 X119.633 Y120.119 E7.23517
G1 X119.290 Y120.535 E7.26337
G1 X118.861 Y120.951 E7.29455
G1 X119.078 Y121.314 F7800.000
G1 F900
G1 X118.780 Y121.556 E7.31459
G1 X118.344 Y121.836 E7.34169
G1 X117.900 Y122.053 E7.36752
G1 X117.455 Y122.205 E7.39206
G1 X117.017 Y122.292 E7.41539
G1 X116.591 Y122.315 E7.43768
G1 X116.182 Y122.275 E7.45916
G1 X115.793 Y122.175 E7.48016
G1 X115.425 Y122.015 E7.50107
G1 X115.083 Y121.797 E7.52227
G1 X114.769 Y121.522 E7.54412
G1 X114.486 Y121.190 E7.56690
G1 X114.240 Y120.803 E7.59083
G1 X114.036 Y120.367 E7.61601
G1 X113.879 Y119.885 E7.64248
G1 X113.771 Y119.366 E7.67019
G1 X113.717 Y118.816 E7.69906
G1 X113.719 Y118.244 E7.72893
G1 X113.777 Y117.660 E7.75961
G1 X113.890 Y117.072 E7.79089
G1 X114.059 Y116.490 E7.82254
G1 X114.279 Y115.923 E7.85432
G1 X114.547 Y115.380 E7.88597
G1 X114.860 Y114.869 E7.91725
G1 X115.212 Y114.399 E7.94793
G1 X115.596 Y113.976 E7.97780
G1 X116.007 Y113.606 E8.00666
G1 X116.437 Y113.295 E8.03438
G1 X116.878 Y113.046 E8.06085
G1 X117.323 Y112.861 E8.08603
G1 X117.765 Y112.742 E8.10996
G1 X118.181 Y112.690 E8.13185
G1 X118.621 Y112.697 E8.15483
G1 X119.015 Y112.766 E8.17577
G1 X119.394 Y112.896 E8.19668
G1 X119.749 Y113.085 E8.21769
G1 X120.078 Y113.332 E8.23917
G1 X120.377 Y113.636 E8.26145
G1 X120.642 Y113.996 E8.28478
G1 X120.867 Y114.408 E8.30933
G1 X121.049 Y114.867 E8.33515
G1 X121.182 Y115.369 E8.36226
G1 X121.262 Y115.905 E8.39057
G1 X121.289 Y116.467 E8.41995
G1 X121.259 Y117.046 E8.45025
G1 X121.173 Y117.633 E8.48126
G1 X121.032 Y118.219 E8.51276
G1 X120.838 Y118.795 E8.54450
G1 X120.593 Y119.351 E8.57624
G1 X120.302 Y119.879 E8.60774
G1 X119.969 Y120.370 E8.63875
G1 X119.600 Y120.818 E8.66905
G1 X119.125 Y121.277 E8.70355
G1 X119.328 Y121.623 F7800.000
G1 F900
G1 X119.013 Y121.878 E8.72254
G1 X118.539 Y122.183 E8.74895
G1 X118.052 Y122.421 E8.77436
G1 X117.558 Y122.590 E8.79878
G1 X117.066 Y122.687 E8.82228
G1 X116.583 Y122.713 E8.84498
G1 X116.113 Y122.667 E8.86709
G1 X115.663 Y122.552 E8.88885
G1 X115.239 Y122.367 E8.91053
G1 X114.844 Y122.116 E8.93243
G1 X114.485 Y121.801 E8.95481
G1 X114.166 Y121.426 E8.97789
G1 X113.891 Y120.995 E9.00184
G1 X113.666 Y120.513 E9.02675
G1 X113.494 Y119.987 E9.05267
G1 X113.378 Y119.425 E9.07956
G1 X113.320 Y118.834 E9.10737
G1 X113.322 Y118.224 E9.13598
G1 X113.383 Y117.602 E9.16524
G1 X113.504 Y116.979 E9.19499
G1 X113.682 Y116.362 E9.22504
G1 X113.915 Y115.762 E9.25520
G1 X114.199 Y115.188 E9.28525
G1 X114.531 Y114.646 E9.31500
G1 X114.905 Y114.146 E9.34426
G1 X115.316 Y113.694 E9.37287
G1 X115.757 Y113.297 E9.40068
G1 X116.222 Y112.960 E9.42758
G1 X116.703 Y112.688 E9.45349
G1 X117.195 Y112.485 E9.47840
G1 X117.688 Y112.351 E9.50235
G1 X118.171 Y112.290 E9.52514
G1 X118.656 Y112.300 E9.54789
G1 X119.115 Y112.380 E9.56970
G1 X119.553 Y112.531 E9.59139
G1 X119.963 Y112.749 E9.61315
G1 X120.340 Y113.032 E9.63525
G1 X120.680 Y113.378 E9.65796
G1 X120.977 Y113.782 E9.68146
G1 X121.228 Y114.239 E9.70588
G1 X121.427 Y114.743 E9.73129
G1 X121.571 Y115.288 E9.75770
G1 X121.658 Y115.866 E9.78506
G1 X121.686 Y116.468 E9.81329
G1 X121.655 Y117.085 E9.84224
G1 X121.564 Y117.708 E9.87177
G1 X121.414 Y118.330 E9.90170
G1 X121.208 Y118.939 E9.93183
G1 X120.949 Y119.527 E9.96195
G1 X120.641 Y120.087 E9.99188
G1 X120.287 Y120.608 E10.02141
G1 X119.894 Y121.085 E10.05037
G1 X119.375 Y121.585 E10.08413
G1 X118.951 Y121.490 F7800.000
G1 E8.08413 F2400.00000
G92 E0
G1 X115.529 Y121.094 F7800.000
G1 E2.00000 F2400.00000
G1 F1200
G1 X115.203 Y120.768 E2.02512
G1 X114.999 Y120.528 E2.04231
G1 X114.813 Y120.236 E2.06115
G1 X114.654 Y119.895 E2.08170
G1 X114.518 Y119.465 E2.10628
G1 X116.682 Y121.629 E2.27310
G1 X117.076 Y121.621 E2.29458
G1 X117.257 Y121.586 E2.30463
G1 X114.404 Y118.733 E2.52453
G1 X114.395 Y118.106 E2.55870
G1 X117.733 Y121.443 E2.81596
G1 X118.144 Y121.236 E2.84105
G1 X114.457 Y117.550 E3.12527
G1 X114.562 Y117.037 E3.15379
G1 X118.514 Y120.988 E3.45839
G1 X118.850 Y120.707 E3.48231
G1 X114.704 Y116.560 E3.80199
G1 X114.877 Y116.115 E3.82803
G1 X119.158 Y120.397 E4.15811
G1 X119.438 Y120.058 E4.18205
G1 X115.080 Y115.700 E4.51799
G1 X115.309 Y115.311 E4.54260
G1 X119.690 Y119.692 E4.88031
G1 X119.917 Y119.301 E4.90496
G1 X115.563 Y114.947 E5.24058
G1 X115.696 Y114.770 E5.25266
G1 X115.842 Y114.608 E5.26454
G1 X120.118 Y118.884 E5.59415
G1 X120.291 Y118.440 E5.62016
G1 X116.148 Y114.296 E5.93956
G1 X116.484 Y114.014 E5.96347
G1 X120.434 Y117.964 E6.26798
G1 X120.540 Y117.452 E6.29650
